X:1
T:Title
%%score { ( 1 3 5 ) | ( 2 4 ) }
L:1/8
M:6/8
K:Eb
V:1 treble nm="Grand Piano"
V:3 treble 
V:5 treble 
V:2 bass 
V:4 bass 
V:1
 z3 z2[Q:1/4=81] [EG]/[FA]/ | [GB]>[Ac][GB] [Ge]>[Bd][DAc] | %2
 [EGB] [B,EG]2- [B,EG]2 [B,EG]/[B,FA]/ | [B,GB][B,GB][B,GB] [B,DB][B,DB][CE=A] | %4
 [B,B]3- [B,B]2 [B,EG]/[B,FA]/ | [B,GB]>[Ac][GB] [Ge]>[Bd][Ac] | [GB] G2- G2 E/[EF]/ | %7
[M:27/32] [EG]/B/4-B/4-B/4-B/4-B/4-B/4-B/-<B/ z/ D/-<D/D/-<D/ z/4 z/4 z/4 z/ |[M:5/8] G,-G,- G,3- | %9
[M:1/8] [G,E-G-B-]/4[EGB]/4[EGB]/ | %10
[M:3/4] (9:8:10[EAc]3/2[EAc]3/4 [EAc]-[EAc]/8[Ece]3/8-[Ece]-[Ece]/8[EBd]3/4[EAc]-[EAc]/8 | %11
 (3:2:2[EAc]2 [EGB] E-[B,-EG-B-]/<[B,GB]/- [B,GB][B,GB] | %12
 (7:8:8[GB]3/4[DF]-[DF]/8[EG]3/4[FA]3/4[Bd]-[Bd]/8[Ac]3/4 | %13
 (7:8:7[Ac]3/4[GB]-[GB]/8[FA]3/4[EG]3/8-[EG]3/2[GB]3/4 | z2 z2 z [Bd]3/4 z/4 | %15
 (5:4:4[EGB]3/2 [B,EG]4- [B,EG]/[=A,EF]3/2 | (5:4:4[B,EG]3/2 [B,EG]4- [B,EG]/[A,DF]3/2 | %17
[M:5/8] [G,E]-[G,E]- [G,E]3 |] %18
V:2
 z3 z2 [E,B,]/[E,B,]/ | [E,B,]>[E,B,][E,B,] [E,B,]>[E,B,]E, | E, E,2- E,2 E,/E,/ | E,E,E, F,F,F, | %4
 z3 A2 E,/E,/ | E,>[E,B,][E,B,] [E,B,]>[E,B,][E,D] | [E,E] [E,B,E]2- [E,B,E]2 [C,=A,]/[C,A,]/ | %7
[M:27/32] [B,,B,]/G,/4-G,/4-G,/4-G,/4-G,/-<G,/-[G,B,-]/B,/-[F,-B,]/F,/-[B,,-F,]/B,,/ z/4 z/4 z/4 z/ | %8
[M:5/8] E,-E,- E,3 |[M:1/8] E,/E,/ |[M:3/4] (9:8:10A,3/2A,3/4 A,-A,/8A,3/8-A,-A,/8A,3/4A,-A,/8 | %11
 (3:2:2E,2 E, E, E,2 E, | %12
 (7:8:8[B,,B,]3/4[B,,B,]-[B,,B,]/8[B,,B,]3/4[B,,B,]3/4[B,,B,]-[B,,B,]/8[B,,B,]3/4 | %13
 (7:8:7[B,,B,]3/4[B,,B,]-[B,,B,]/8[B,,B,]3/4[E,B,]3/8-[E,B,]3/2[E,B,]3/4 | %14
 [E,B,]4- [E,B,]B,/-[E,-B,]/4E,/4 | (5:4:4E,3/2 E,4- E,/C,3/2 | (5:4:4B,,3/2 B,,4- B,,/B,,3/2 | %17
[M:5/8] E,-E,- E,3 |] %18
V:3
 x6 | x6 | x6 | x6 | D3 z3 | x6 | x6 | %7
[M:27/32] z/ E/4-E/4-E/4-E/4-E/-<E/[EG]/4-[EG]/4-[EG]/-<[EG]/ z/ [B,G]/4-[B,G]/4-[B,G]/-<[B,G]/ z/4 z/ | %8
[M:5/8] E-E- E3 |[M:1/8] x |[M:3/4] x6 | z2 .[B,G]2 z2 | x6 | x6 | [Ge]4- [Ge]-[Ge]/4 z/4 z/ | x6 | %16
 x6 |[M:5/8] x5 |] %18
V:4
 x6 | x6 | x6 | x6 | B,,6 | x6 | x6 | %7
[M:27/32] z/ B,,/4-B,,/4-B,,/4-B,,/4-B,,/-<B,,/B,,/-<B,,/B,,/-<B,,/ z/4 z/4 z/ B,,/4-B,,/-<B,,/- | %8
[M:5/8] B,,3/4 z/4 z z z2 |[M:1/8] x |[M:3/4] x6 | x6 | x6 | x6 | z2 z2 z .E, | x6 | x6 | %17
[M:5/8] x5 |] %18
V:5
 x6 | x6 | x6 | x6 | x6 | x6 | x6 | %7
[M:27/32] z/4 z/4 z/4 z/4 z/4 z/4 z/4 z/4 z/4 z/4 z/4 z/4 z/ A/4-A/4-A/-<A/ z/ [A,DF]/4-[A,DF]/-<[A,DF]/- | %8
[M:5/8] [A,DF]3/4 z/4 z z z2 |[M:1/8] x |[M:3/4] x6 | x6 | x6 | x6 | z2 z2 z z/ [DAc]/ | x6 | x6 | %17
[M:5/8] x5 |] %18

